!!!COM: Haydn, Franz Joseph
!!!OTL: String Quartet in E-flat major
!!!OPS: Opus 1
!!!ONM: No. 2
!!!OMD: Allegro molto
!!!OMV: 1
!!!SCT: H III:2
!!!SCA: Thematisch-bibliographisches Werkevererzeichnis (A. van Hoboken)
!!!YOR: Bremner Edition, 1772
!!!ENC: Frances Bennion
!!!CDT: 1732/3/31/-1809/5/31/
!!!CNT: Oesterreich
!!!YEC: Copyright (c) 1994, 2000 Center for Computer Assisted Research in the Humanities
!!!YEM: Rights to all derivative editions reserved.
!!!YEM: Refer to licensing agreement for further details.
!!!YEN: United States of America
**kern	**kern	**kern	**kern
*k[b-e-a-]	*k[b-e-a-]	*k[b-e-a-]	*k[b-e-a-]
*E-:	*E-:	*E-:	*E-:
*clefF4	*clefC3	*clefF	*clefF
*M3/8	*M3/8	*M3/8	*M3/8
4E-	4e-	4g	4ee- 4e-
8r	8r	16ee-	16gg
.	.	16dd	16ff
=2	=2	=2	=2
8B-	8b-	8dd	8ff
4r	4r	4r	4r
=3	=3	=3	=3
4BB-	4B-	4dd	4ff 4b-
8r	8r	16ff	16aa-
.	.	16ee-	16gg
=4	=4	=4	=4
8E-	8e-	8ee-	8gg
4r	4r	4r	4r
=5	=5	=5	=5
8E-	8e-	4.gg	4.bb-
8G	8g	.	.
8B-	8b-	.	.
=6	=6	=6	=6
8e-	8ee-	[4.gg	[4.bb-
8B-	8b-	.	.
8G	8g	.	.
=7	=7	=7	=7
8E-	8e-	16gg]	16bb-]
.	.	16aa-	16ccc
4r	4r	16gg	16bb-
.	.	16ff	16aa-
.	.	16ee-	16gg
.	.	16dd	16ff
=8	=8	=8	=8
4.r	4.r	8ee-	16ee-
.	.	.	16dd
.	.	4r	16ff
.	.	.	16ee-
.	.	.	16gg
.	.	.	16ee-
=9	=9	=9	=9
8BB-	8B-	4g	4b-
8BB-	8B-	.	.
8BB-	8B-	8f	8a-
=10	=10	=10	=10
8E-	8B-	8e-	8g
8G	4r	4r	4r
8B-	.	.	.
=11	=11	=11	=11
4E-	4e-	4G	4.r
8r	16g	16e-	.
.	16f	16d	.
=12	=12	=12	=12
8B-	8f	8d	8r
4r	4r	4r	8b-
.	.	.	8b-
=13	=13	=13	=13
4BB-	4f	4d	[4.b-
8r	16a-	16f	.
.	16g	16e-	.
=14	=14	=14	=14
8E-	8g	8e-	8b-]
4r	4r	4r	8b-
.	.	.	8b-
=15	=15	=15	=15
8E-	8e-	8g	[4.b-
8D	16B-	8f	.
.	16c	.	.
8F	16d	8a-	.
.	16B-	.	.
=16	=16	=16	=16
8E-	8e-	8g	16b-]
.	.	.	16ee-
4r	4r	4r	16dd
.	.	.	16cc
.	.	.	8b-
=17	=17	=17	=17
8E-	8e-	8g	[4.b-
8D	16B-	8f	.
.	16c	.	.
8F	16d	8a-	.
.	16B-	.	.
=18	=18	=18	=18
8E-	8e-	8g	16b-]
.	.	.	16ee-
4r	4r	4r	16dd
.	.	.	16cc
.	.	.	8b-
=19	=19	=19	=19
4.r	4.r	4a-	16cc
.	.	.	16dd
.	.	.	16ee-
.	.	.	16cc
.	.	8g	8b-
=20	=20	=20	=20
4.r	4.r	4f	16a-
.	.	.	16b-
.	.	.	16cc
.	.	.	16a-
.	.	8e-	8g
=21	=21	=21	=21
4AA-	4A-	4c	16f
.	.	.	16g
.	.	.	16a-
.	.	.	16g
8AA	8A	8c	16f
.	.	.	16e-
=22	=22	=22	=22
8BB-	8B-	8B-	8b-
16B-	16b-	4r	4r
16A	16a	.	.
16B-	16b-	.	.
16A	16a	.	.
=23	=23	=23	=23
4B-	4b-	8r	8r
.	.	8dd	8ff
8r	8r	8dd	8ff#
=24	=24	=24	=24
8BB-	8B-	[4.ee-	[4.gg
16B-	16b-	.	.
16A	16a	.	.
16B-	16b-	.	.
16A	16a	.	.
=25	=25	=25	=25
4B-	4b-	8ee-]	8gg]
.	.	8gg	8bb-
8r	8r	8ee-	8gg
=26	=26	=26	=26
8BB-	8B-	[4.dd	[4.ff
16B-	16b-	.	.
16A	16a	.	.
16B-	16b-	.	.
16A	16a	.	.
=27	=27	=27	=27
4B-	4b-	8dd]	8ff]
.	.	4r	16ddd
.	.	.	16bb-
8r	8r	.	16gg
.	.	.	16ff
=28	=28	=28	=28
4.B-	4.g	[4.cc	16ee-
.	.	.	16dd
.	.	.	16ee-
.	.	.	16dd
.	.	.	8ee-
=29	=29	=29	=29
4.A	4.f	4.cc]	16ccc
.	.	.	16aa
.	.	.	16eee-
.	.	.	16ccc
.	.	.	16aa
.	.	.	16ee-
=30	=30	=30	=30
8B-	8f	8b-	8dd
4r	4r	4r	16bb-
.	.	.	16aa
.	.	.	16bb-
.	.	.	16aa
=31	=31	=31	=31
8r	8r	8r	8bb-
8D	8d	8d	8d
8B-	8b-	8b-	8b-
=32	=32	=32	=32
8E-	8e-	8e-	8e-
4r	4r	4r	16gg
.	.	.	16ff#
.	.	.	16gg
.	.	.	16ff#
=33	=33	=33	=33
8r	8r	8r	8gg
8E-	8e-	8e-	8e-
8C	8c	8c	8c
=34	=34	=34	=34
8AA	8A	8A	8A
8r	8r	4r	16f
.	.	.	16a
8A	8f	.	16cc
.	.	.	16ee-
=35	=35	=35	=35
8B-	8f	8b-	24dd
.	.	.	24cc
.	.	.	24b-
8E-	8g	8B-	4cc
8F	16f	8A	.
.	16e-	.	.
=36	=36	=36	=36
4BB-	8d	8B-	4b-
.	4r	8r	.
8B-	.	16d	8r
.	.	16f	.
=37	=37	=37	=37
8c	4r	16e-	4r
.	.	16f	.
8A	.	16e-	.
.	.	16f	.
8F	8cc	16e-	8aa
.	.	16f	.
=38	=38	=38	=38
8B-	8dd	16d	8bb-
.	.	16f	.
8BB-	8b-	16d	8ff
.	.	16f	.
8B-	8r	16d	8r
.	.	16f	.
=39	=39	=39	=39
8c	4r	16e-	4r
.	.	16f	.
8A	.	16e-	.
.	.	16f	.
8F	8cc	16e-	8aa
.	.	16f	.
=40	=40	=40	=40
4B-	8dd	4d	8bb-
.	4r	.	16b-
.	.	.	16a
8r	.	8r	16cc
.	.	.	16b-
=41	=41	=41	=41
4.r	4.r	16b-	16dd
.	.	16a	16cc
.	.	16cc	16ee-
.	.	16b-	16dd
.	.	16ee-	16gg
.	.	16dd	16ff
=42	=42	=42	=42
8BB-	8B-	4dd	4ff
8B-	8b-	.	.
8r	8r	16ee-	16gg
.	.	16dd	16ff
=43	=43	=43	=43
8E-	8g	8cc	8ee-
8F	8f	8b-	8dd
8FF	8e-	8a	8cc
=44	=44	=44	=44
4BB-	8d	4b-	4b-
.	8r	.	.
8r	16ee-	16gg	8r
.	16dd	16ff	.
=45	=45	=45	=45
4.r	8dd	8ff	4.r
.	8r	8r	.
.	16cc	16ee-	.
.	16b-	16dd	.
=46	=46	=46	=46
4r	8b-	8dd	4r
.	8r	8r	.
8E-	8f	8cc	24eee-
.	.	.	24ccc
.	.	.	24aa
=47	=47	=47	=47
8D	8f	8dd	8bb-
8F	8f	8b-	8dd
8FF	8e-	8a	8cc
=48	=48	=48	=48
4BB-	8d	8b-	8b-
.	4r	4r	4r
8r	.	.	.
=49	=49	=49	=49
8BB-	8B-	4d	4b- 4d
8BB-	8B-	.	.
8BB-	8B-	16b-	16dd
.	.	16a	16cc
=50	=50	=50	=50
8BB-	4.e-	4.a	4.cc
8BB-	.	.	.
8BB-	.	.	.
=51	=51	=51	=51
8BB-	8f	8a-	8dd
8BB-	8f	8a-	8dd
8BB-	8f	8a-	8dd
=52	=52	=52	=52
8BB-	8B-	16g	16ee-
.	.	16f	16dd
8BB-	8B-	8g	8ee-
8BB-	8B-	8r	8r
=53	=53	=53	=53
8BB-	8B-	4dd	4ff
8BB-	8B-	.	.
8BB-	8B-	16ff	16aa-
.	.	16ee-	16gg
=54	=54	=54	=54
8BB-	8B-	4ee-	4gg
8BB-	8B-	.	.
8BB-	8B-	16gg	16bb-
.	.	16ee-	16gg
=55	=55	=55	=55
8BB-	8g	8ee-	8ee-
8BB-	8g	8b-	8b-
8BB-	8e-	16g	16g
.	.	16e-	16e-
=56	=56	=56	=56
4BB-	8B-	8b-	8b-
.	4r	4r	4r
8r	.	.	.
=57	=57	=57	=57
4E-	4e-	4g	4ee- 4e-
8r	8r	16ee-	16gg
.	.	16dd	16ff
=58	=58	=58	=58
8B-	8b-	8dd	8ff
4r	4r	4r	4r
=59	=59	=59	=59
4BB-	4B-	4dd	4b- 4ff
8r	8r	16ff	16aa-
.	.	16ee-	16gg
=60	=60	=60	=60
8E-	8e-	8ee-	8gg
4r	4r	4r	4r
=61	=61	=61	=61
8E-	8e-	4.gg	4.bb-
8G	8g	.	.
8B-	8b-	.	.
=62	=62	=62	=62
8e-	8ee-	[4.gg	[4.bb-
8B-	8b-	.	.
8G	8g	.	.
=63	=63	=63	=63
8E-	4e-	16gg]	16bb-]
.	.	16aa-	16ccc
4r	.	16gg	16bb-
.	.	16ff	16aa-
.	8r	16ee-	16gg
.	.	16dd	16ff
=64	=64	=64	=64
4.r	4.r	8ee-	16ee-
.	.	.	16dd
.	.	4r	16ff
.	.	.	16ee-
.	.	.	16gg
.	.	.	16ee-
=65	=65	=65	=65
8BB-	8B-	4g	4b-
8BB-	8B-	.	.
8BB-	8B-	8f	8a-
=66	=66	=66	=66
8E-	8e-	8e-	8g
8E-	8e-	4r	4r
8F	8f	.	.
=67	=67	=67	=67
8G	8g	16e-	4.ddd-
.	.	16b-	.
8G	8b-	16e-	.
.	.	16b-	.
8G	8ee-	16e-	.
.	.	16b-	.
=68	=68	=68	=68
4A-	8e-	8cc	16ddd-
.	.	.	16ccc
.	4r	4r	16bb-
.	.	.	16aa-
8r	.	.	16gg
.	.	.	16ff
=69	=69	=69	=69
8E	8e	16g	4gg
.	.	16cc	.
8E	8g	16g	.
.	.	16cc	.
8E	8cc	16g	16aa-
.	.	16cc	16bb-
=70	=70	=70	=70
8F	8c	8a-	16bb-
.	.	.	16aa-
4r	4r	4r	16gg
.	.	.	16ff
.	.	.	16ee
.	.	.	16ff
=71	=71	=71	=71
8A-	8d	16d	4.ccc
.	.	16f	.
8A-	8f	16d	.
.	.	16f	.
8A-	8f	16d	.
.	.	16f	.
=72	=72	=72	=72
8G	8B-	8e-	16ccc
.	.	.	16bb-
4r	4r	4r	16aa-
.	.	.	16gg
.	.	.	16ff
.	.	.	16ee-
=73	=73	=73	=73
8D	8d	16f	4ff
.	.	16b-	.
8D	8f	16f	.
.	.	16b-	.
8D	8b-	16f	16gg
.	.	16b-	16aa-
=74	=74	=74	=74
8E-	8B-	8g	16aa-
.	.	.	16gg
4r	4r	4r	16ff
.	.	.	16ee-
.	.	.	16dd
.	.	.	16ee-
=75	=75	=75	=75
8c	8e-	16gg	4e-
.	.	16ff#	.
8e-	4r	8gg	.
8c	.	8gg	8r
=76	=76	=76	=76
8G	16g	8g	16b
.	16a	.	16cc
4r	16b	4r	16dd
.	16cc	.	16ee-
.	16dd	.	16ff
.	16ee-	.	16gg
=77	=77	=77	=77
8c	8cc	16gg	8ee-
.	.	16ff#	.
8e-	4r	8gg	4r
8c	.	8gg	.
=78	=78	=78	=78
4G	16g	8g	16b
.	16a	.	16cc
.	16b	4r	16dd
.	16cc	.	16ee-
8r	16dd	.	16ff
.	16ee-	.	16gg
=79	=79	=79	=79
4c	16e-	16gg	8ee-
.	16d	16ff#	.
.	8e-	8gg	4r
8c	8e-	8gg	.
=80	=80	=80	=80
4F	8f	8aa-	16ccc
.	.	.	16bb-
.	4r	4r	16aa-
.	.	.	16gg
8A-	.	.	16ff
.	.	.	16ee-
=81	=81	=81	=81
4B-	16d	16ff	8dd
.	16c	16ee-	.
.	8d	8ff	4r
8B-	8d	8ff	.
=82	=82	=82	=82
4E-	8e-	8gg	16bb-
.	.	.	16aa-
.	4r	4r	16gg
.	.	.	16ff
8G	.	.	16ee-
.	.	.	16dd-
=83	=83	=83	=83
4A-	4e-	16ccc	4cc
.	.	16bb-	.
.	.	16aa-	.
.	.	16gg	.
8A	8f	16ff	8cc
.	.	16ee-	.
=84	=84	=84	=84
8B-	8f	8dd	8b-
16B-	16b-	16b-	16b-
16A	16a	16a	16a
16B-	16b-	16b-	16b-
16A	16a	16a	16a
=85	=85	=85	=85
8B-	8b-	8b-	8b-
8D	8d	8d	8d
8F	8f	8f	8f
=86	=86	=86	=86
4BB-	4B-	4B-	4B-
8r	8r	8r	8r
=87	=87	=87	=87
4E-	4e-	4G	4.r
8r	16g	16e-	.
.	16f	16d	.
=88	=88	=88	=88
8B-	8f	8d	8r
4r	4r	4r	8b-
.	.	.	8b-
=89	=89	=89	=89
4BB-	4f	4d	[4.b-
8r	16a-	16f	.
.	16g	16e-	.
=90	=90	=90	=90
8E-	8g	8e-	8b-]
4r	4r	4r	8b-
.	.	.	8b-
=91	=91	=91	=91
8E-	8e-	8g	[4.b-
8D	16B-	8f	.
.	16c	.	.
8F	16d	8a-	.
.	16B-	.	.
=92	=92	=92	=92
8E-	8e-	8g	16b-]
.	.	.	16ee-
4r	4r	4r	16dd
.	.	.	16cc
.	.	.	8b-
=93	=93	=93	=93
8E-	8e-	8g	[4.b-
8D	16B-	8f	.
.	16c	.	.
8F	16d	8a-	.
.	16B-	.	.
=94	=94	=94	=94
4E-	8e-	8g	16b-]
.	.	.	16ee-
.	4r	4r	16dd
.	.	.	16cc
8r	.	.	8b-
=95	=95	=95	=95
4.r	4.r	4a-	16cc
.	.	.	16dd
.	.	.	16ee-
.	.	.	16cc
.	.	8g	8b-
=96	=96	=96	=96
4.r	4.r	4f	16a-
.	.	.	16b-
.	.	.	16cc
.	.	.	16a-
.	.	8e-	8g
=97	=97	=97	=97
4A-	4b-	4dd	16ff
.	.	.	16gg
.	.	.	16aa-
.	.	.	16ff
8G	8b-	8ee-	16bb-
.	.	.	16gg
=98	=98	=98	=98
4A-	4b-	4dd	16ff
.	.	.	16gg
.	.	.	16aa-
.	.	.	16ff
8G	8b-	8ee-	16bb-
.	.	.	16gg
=99	=99	=99	=99
8c	8cc	8e-	16dd
.	.	.	16ee-
8B-	8b-	8e-	8g
8BB-	8B-	8d	8f
=100	=100	=100	=100
8E-	8e-	4e-	4e-
16E-	16e-	.	.
16D	16d	.	.
16E-	16e-	8r	8r
16D	16d	.	.
=101	=101	=101	=101
4E-	4e-	8r	8r
.	.	8g	8b-
8r	8r	8g	8b
=102	=102	=102	=102
8E-	8e-	[4.a-	[4.cc
16E-	16e-	.	.
16D	16d	.	.
16E-	16e-	.	.
16D	16d	.	.
=103	=103	=103	=103
4E-	4e-	8a-]	8cc]
.	.	8cc	8aa-
8r	8r	8aa-	8ccc
=104	=104	=104	=104
8E-	8e-	[4.gg	[4.bb-
16E-	16e-	.	.
16D	16d	.	.
16E-	16e-	.	.
16D	16d	.	.
=105	=105	=105	=105
8E-	8e-	8gg]	16bb-]
.	.	.	16gg
4r	4r	4r	16ff
.	.	.	16ee-
.	.	.	16dd
.	.	.	16ee-
=106	=106	=106	=106
4.E-	4.c	[4.f	16a-
.	.	.	16g
.	.	.	16a-
.	.	.	16g
.	.	.	8a-
=107	=107	=107	=107
4.D	4.B-	4.f]	16ff
.	.	.	16dd
.	.	.	16aa-
.	.	.	16ff
.	.	.	16dd
.	.	.	16a-
=108	=108	=108	=108
8E-	8B-	8e-	8g
4r	4r	4r	16ee-
.	.	.	16dd
.	.	.	16ee-
.	.	.	16dd
=109	=109	=109	=109
8r	8r	8r	8ee-
8BB-	8B-	8G	8G
8E-	8e-	8e-	8e-
=110	=110	=110	=110
8AA-	8A-	8A-	8A-
4r	4r	4r	16cc
.	.	.	16b
.	.	.	16cc
.	.	.	16b
=111	=111	=111	=111
8r	8r	8r	8cc
8A-	8a-	8a-	8a-
8F	8f	8f	8f
=112	=112	=112	=112
8D	8d	8d	8d
8r	8r	8r	16B-
.	.	.	16d
8BB-	8B-	8d	16f
.	.	.	16a-
=113	=113	=113	=113
8E-	8e-	8e-	24g
.	.	.	24f
.	.	.	24e-
8B-	8b-	8e-	4f
8BB-	8B-	8d	.
=114	=114	=114	=114
4E-	4e-	4e-	4e-
8E-	8r	16g	8r
.	.	16b-	.
=115	=115	=115	=115
8F	4r	16a-	4r
.	.	16b-	.
8D	.	16a-	.
.	.	16b-	.
8BB-	8f	16a-	8dd
.	.	16b-	.
=116	=116	=116	=116
4E-	8g	16g	8ee-
.	.	16b-	.
.	8e-	16g	8b-
.	.	16b-	.
8E-	8r	16g	8r
.	.	16b-	.
=117	=117	=117	=117
8F	4r	16a-	4r
.	.	16b-	.
8D	.	16a-	.
.	.	16b-	.
8BB-	8f	16a-	8dd
.	.	16b-	.
=118	=118	=118	=118
8E-	8g	8g	8ee-
4r	4r	4r	16e-
.	.	.	16d
.	.	.	16f
.	.	.	16e-
=119	=119	=119	=119
4.r	4.r	16e-	16g
.	.	16d	16f
.	.	16f	16a-
.	.	16e-	16g
.	.	16a-	16cc
.	.	16g	16b-
=120	=120	=120	=120
8E-	8e-	4g	4b-
8EE-	8E-	.	.
8r	8r	16cc	16aa-
.	.	16b-	16gg
=121	=121	=121	=121
8A-	8a-	8a-	8ff
8B-	8b-	8g	8ee-
8BB-	8B-	8f	8dd
=122	=122	=122	=122
4E-	4B-	4g	4ee-
8r	16a-	16cc	8r
.	16g	16b-	.
=123	=123	=123	=123
4.r	8g	8b-	4.r
.	8r	8r	.
.	16f	16a-	.
.	16e-	16g	.
=124	=124	=124	=124
4r	8e-	8g	4r
.	8r	8r	.
8A-	8B-	8f	16dd
.	.	.	16b-
=125	=125	=125	=125
8G	8B-	8g	8ee-
8B-	8B-	8e-	8g
8BB-	16B-	8d	8f
.	16A-	.	.
=126	=126	=126	=126
4E-	4G	4e-	4e-
8r	16a-	16cc	8r
.	16g	16b-	.
=127	=127	=127	=127
4.r	8g	8b-	4.r
.	8r	8r	.
.	16dd	16aa-	.
.	16ee-	16gg	.
=128	=128	=128	=128
4r	8ee-	8gg	4r
.	8r	8r	.
8A-	8B-	8f	16bb-
.	.	.	16dd
=129	=129	=129	=129
8G	8B-	8g	8ee-
8B-	8B-	8e-	8g
8BB-	16B-	8d	8f
.	16A-	.	.
=130	=130	=130	=130
4E-	4G	4e-	4e-
8r	8r	8r	8r
==	==	==	==
*-	*-	*-	*-
!!!RWG1: This file contains only pitch and duration data.
!!!RWG2: Transposing instruments are not transposed.
!!!RWG3: Spines may have incompatible meters.
!!!RWG4: Durations of rests and tied notes may be interpreted.
!!!RWG: Key is interpreted using the Humdrum key tool.
!!!GTL: 10 Divertimentos
!!!AFT: stage1
!!!END: 1997/04/15
!!!KEY: 1305215422
!!!EMD: Converted from MuseData to Humdrum Dec 16, 2000, by Andreas Kornstaedt using muse2kern.
!!!EMD: Manual editing by Craig Sapp, Nov 2001
